build/assets/images/svg/icons/login/instagram.svg

<svg width="40" height="40" viewBox="0 0 40 40" fill="none" xmlns="http://www.w3.org/2000/svg">
<rect width="40" height="40" rx="20" fill="#F4F7FB"/>
<path fill-rule="evenodd" clip-rule="evenodd" d="M23.7111 12H17.2889C14.3611 12 12 14.3611 12 17.2889V23.7111C12 26.6389 14.3611 29 17.2889 29H23.7111C26.6389 29 29 26.6389 29 23.7111V17.2889C29 14.3611 26.6389 12 23.7111 12ZM20.499 16.249C18.1379 16.249 16.249 18.1379 16.249 20.499C16.249 22.8601 18.1379 24.749 20.499 24.749C22.8601 24.749 24.749 22.8601 24.749 20.499C24.749 18.1379 22.8601 16.249 20.499 16.249ZM20.499 23.1434C18.9879 23.1434 17.8545 21.9156 17.8545 20.499C17.8545 19.0823 19.0823 17.8545 20.499 17.8545C21.9156 17.8545 23.1434 19.0823 23.1434 20.499C23.1434 21.9156 22.0101 23.1434 20.499 23.1434ZM25.8125 15.7188C25.8125 16.0122 25.5747 16.25 25.2812 16.25C24.9878 16.25 24.75 16.0122 24.75 15.7188C24.75 15.4253 24.9878 15.1875 25.2812 15.1875C25.5747 15.1875 25.8125 15.4253 25.8125 15.7188Z" fill="#203686"/>
</svg>

<svg width="40" height="40" fill="none" xmlns="http://www.w3.org/2000/svg"><rect width="40" height="40" rx="20" fill="#F4F7FB"/><path fill-rule="evenodd" clip-rule="evenodd" d="M23.711 12H17.29A5.28 5.28 0 0012 17.289v6.422A5.28 5.28 0 0017.289 29h6.422A5.28 5.28 0 0029 23.711V17.29A5.28 5.28 0 0023.711 12zM20.5 16.249a4.232 4.232 0 00-4.25 4.25 4.232 4.232 0 004.25 4.25 4.232 4.232 0 004.25-4.25 4.232 4.232 0 00-4.25-4.25zm0 6.894a2.64 2.64 0 01-2.644-2.644c0-1.417 1.227-2.644 2.644-2.644s2.644 1.227 2.644 2.644a2.64 2.64 0 01-2.644 2.644zm5.314-7.424a.531.531 0 11-1.063 0 .531.531 0 011.063 0z" fill="#203686"/></svg>
